X:78
T:Atlantic Roar, The
R:hornpipe
D:Sean Keane: Jig It in Style
Z:id:hn-hornpipe-78
M:C|
K:A
(3EFG|A3B A2fg|afge fdBA|G2GF GFEG|Bc (3BAG AECE|
A3B A2fg|afge fdBA|G2GF GFEG|Bc (3BAG A2:|
|:(3Bcd|(3efe ^df e=dcd|(3efg ac' bgae|ce^df ec=dc|~B3c BEGB|
e3f edcd|(3efg ac' bgae|(3cdc Ac (3BcB GB|A2GB A2:|

